X: 21
T: An Adventure at Margate
%%VWML:Skillerns1780-2277i-p11-0
F:http://www.vwml.org/record/Skillerns1780/2277i/p11
%R: jig
B: "Twenty Four Country Dances for the Year 1780", Thomas Skillern, ed. p.11 #1
F: http://www.vwml.org/browse/browse-collections-dance-tune-books/browse-skillerns1780#
Z: 2014 John Chambers <jc:trillian.mit.edu>
M: 6/8
L: 1/8
K: C
|:\
gec gec | a2g g3 | gec gec | f2e e3 |\
gec gec | afc afc | efg gfe | c3 c3 :|
|:\
def fdB | gec gec | def fdB | gec ceg |\
afa afa | geg geg | agf efd | ccc c3 :|
W:
W:  Right hands across Left hands back again .|.
W:Lead down two Cu.s up again and cast off :|. the
W:1st & 2d Cu.s Ballance pas Rigadoon and half
W:Right & Left .|: Ballance pas Rigadoon & half
W:Right and Left back again :|:
W:
T: Lady Cunningham's Reel
%R: reel
B: "Twenty Four Country Dances for the Year 1780", Thomas Skillern, ed. p.11 #2
F: http://www.vwml.org/browse/browse-collections-dance-tune-books/browse-skillerns1780#
Z: 2014 John Chambers <jc:trillian.mit.edu>
N: Shortened last note in first strain to fix the rhythm.
M: C|
L: 1/8
K: D
f |\
dDDF TE>DEf | gefd TedBe |\
dDDF TE>DEg | fdef d/d/d d :|
|: f |\
afdf a>baf | gefd Te>dBf |\
a>fdf abag | fdef d/d/d d :|
W:
W:  Cast off two Cu. Cast up again,
W:Lead down the middle up again &
W:Cast off, set corners and turn the
W:other corners the same, lead outsides.

